polaris-icons/icons/new-icons/CustomerMinusMajor.svg

<svg width="20" height="20" viewBox="0 0 20 20" fill="none" xmlns="http://www.w3.org/2000/svg">
<path d="M13.75 2C13.3358 2 13 2.33579 13 2.75C13 3.16421 13.3358 3.5 13.75 3.5H17.25C17.6642 3.5 18 3.16421 18 2.75C18 2.33579 17.6642 2 17.25 2H13.75Z" fill="#4A4A4A"/>
<path fill-rule="evenodd" clip-rule="evenodd" d="M5.5 6.5C5.5 4.567 7.067 3 9 3C10.933 3 12.5 4.567 12.5 6.5C12.5 8.433 10.933 10 9 10C7.067 10 5.5 8.433 5.5 6.5ZM9 4.5C7.89543 4.5 7 5.39543 7 6.5C7 7.60457 7.89543 8.5 9 8.5C10.1046 8.5 11 7.60457 11 6.5C11 5.39543 10.1046 4.5 9 4.5Z" fill="#4A4A4A"/>
<path fill-rule="evenodd" clip-rule="evenodd" d="M8.99999 11C11.2783 11 13.3775 12.2352 14.4839 14.2268L14.9206 15.0128C15.4159 15.9043 14.7712 17 13.7513 17H4.24867C3.22875 17 2.58406 15.9043 3.07937 15.0128L3.51603 14.2268C4.62247 12.2352 6.72169 11 8.99999 11ZM8.99999 12.5C7.26644 12.5 5.66915 13.4398 4.82727 14.9552L4.52463 15.5H13.4754L13.1727 14.9552C12.3308 13.4398 10.7335 12.5 8.99999 12.5Z" fill="#4A4A4A"/>
</svg>

<svg viewBox="0 0 20 20" xmlns="http://www.w3.org/2000/svg"><path d="M13.75 2a.75.75 0 0 0 0 1.5h3.5a.75.75 0 0 0 0-1.5h-3.5Z" fill="#5C5F62"/><path fill-rule="evenodd" d="M5.5 6.5a3.5 3.5 0 1 1 7 0 3.5 3.5 0 0 1-7 0Zm3.5-2a2 2 0 1 0 0 4 2 2 0 0 0 0-4Z" fill="#5C5F62"/><path fill-rule="evenodd" d="M9 11a6.273 6.273 0 0 1 5.484 3.227l.437.786a1.338 1.338 0 0 1-1.17 1.987h-9.502a1.338 1.338 0 0 1-1.17-1.987l.437-.786a6.273 6.273 0 0 1 5.484-3.227Zm0 1.5c-1.734 0-3.33.94-4.173 2.455l-.302.545h8.95l-.302-.545a4.773 4.773 0 0 0-4.173-2.455Z" fill="#5C5F62"/></svg>
